Lila_HD/devices/scalable/drive-harddisk-symbolic.svg

<?xml version="1.0" encoding="UTF-8" standalone="no"?>
<!-- Created with Inkscape (http://www.inkscape.org/) -->

<svg
   xmlns:dc="http://purl.org/dc/elements/1.1/"
   xmlns:cc="http://creativecommons.org/ns#"
   xmlns:rdf="http://www.w3.org/1999/02/22-rdf-syntax-ns#"
   xmlns:svg="http://www.w3.org/2000/svg"
   xmlns="http://www.w3.org/2000/svg"
   xmlns:sodipodi="http://sodipodi.sourceforge.net/DTD/sodipodi-0.dtd"
   xmlns:inkscape="http://www.inkscape.org/namespaces/inkscape"
   width="16"
   height="16"
   id="svg3434"
   version="1.1"
   inkscape:version="0.48.3.1 r9886"
   sodipodi:docname="drive-harddisk.svg">
  <defs
     id="defs3436" />
  <sodipodi:namedview
     id="base"
     pagecolor="#ffffff"
     bordercolor="#666666"
     borderopacity="1.0"
     inkscape:pageopacity="0.0"
     inkscape:pageshadow="2"
     inkscape:zoom="45.254834"
     inkscape:cx="9.7112595"
     inkscape:cy="8.3578853"
     inkscape:document-units="px"
     inkscape:current-layer="g3026"
     showgrid="true"
     inkscape:snap-global="true"
     inkscape:window-width="1920"
     inkscape:window-height="1033"
     inkscape:window-x="-2"
     inkscape:window-y="25"
     inkscape:window-maximized="1"
     fit-margin-top="0"
     fit-margin-left="0"
     fit-margin-right="0"
     fit-margin-bottom="0">
    <inkscape:grid
       type="xygrid"
       id="grid3564"
       empspacing="5"
       visible="true"
       enabled="true"
       snapvisiblegridlinesonly="true"
       originx="-1px"
       originy="-1.0000021px" />
  </sodipodi:namedview>
  <metadata
     id="metadata3439">
    <rdf:RDF>
      <cc:Work
         rdf:about="">
        <dc:format>image/svg+xml</dc:format>
        <dc:type
           rdf:resource="http://purl.org/dc/dcmitype/StillImage" />
        <dc:title />
      </cc:Work>
    </rdf:RDF>
  </metadata>
  <g
     inkscape:label="Camada 1"
     inkscape:groupmode="layer"
     id="device-notifier"
     transform="translate(-1,-1035.3622)">
    <g
       id="g3026"
       inkscape:label="#device">
      <path
         style="color:#000000;fill:#999999;fill-opacity:0.912371168;fill-rule:nonzero;stroke:none;stroke-width:1;marker:none;visibility:visible;display:inline;overflow:visible;enable-background:accumulate"
         d="m 1,0 0,16 14,0 0,-16 z m 6.90625,2 c 0.3321779,-0.00603 0.6606285,0.030704 1,0.09375 2.714972,0.5043677 4.504368,3.0975277 4,5.8125 -0.02378,0.1280271 -0.0288,0.2492195 -0.0625,0.375 L 9.9375,7.5 C 9.9786042,7.3402409 10,7.172589 10,7 10,5.8954306 9.1045694,5 8,5 6.8954306,5 6,5.8954306 6,7 6,7.9770566 6.6987458,8.7939673 7.625,8.96875 l -0.53125,2.9375 C 4.3787777,11.401882 2.5893823,8.8087223 3.09375,6.09375 3.5350717,3.7181493 5.5810048,2.0422412 7.90625,2 z M 8,7 l 4,4 0,2 -2,0 z m -6,5 2,0 0,2 -2,0 z"
         transform="translate(1,1035.3622)"
         id="rect3765"
         inkscape:connector-curvature="0"
         sodipodi:nodetypes="cccccsssccsssccsscccccccccc" />
      <rect
         style="color:#000000;fill:#999999;fill-opacity:0.912371168;fill-rule:nonzero;stroke:none;stroke-width:1;marker:none;visibility:visible;display:inline;overflow:visible;enable-background:accumulate"
         id="rect2985"
         width="14"
         height="14.000039"
         x="-14"
         y="1036.3622" />
      <path
         sodipodi:end="6.5449847"
         sodipodi:start="1.7544751"
         transform="translate(-15,1036.3622)"
         d="M 7.0867615,10.915894 A 5,5 0 1 1 12.829629,7.2940972 L 8,6.0000019 z"
         sodipodi:ry="5"
         sodipodi:rx="5"
         sodipodi:cy="6.0000019"
         sodipodi:cx="8"
         id="path3759"
         style="color:#000000;fill:#ffffff;fill-opacity:0.912371168;fill-rule:nonzero;stroke:none;stroke-width:1;marker:none;visibility:visible;display:inline;overflow:visible;enable-background:accumulate"
         sodipodi:type="arc" />
      <path
         transform="translate(-15,1036.3622)"
         d="m 9.9999998,6.0000019 a 1.9999998,1.9999998 0 1 1 -3.9999996,0 1.9999998,1.9999998 0 1 1 3.9999996,0 z"
         sodipodi:ry="1.9999998"
         sodipodi:rx="1.9999998"
         sodipodi:cy="6.0000019"
         sodipodi:cx="8"
         id="path3761"
         style="color:#000000;fill:#999999;fill-opacity:0.912371168;fill-rule:nonzero;stroke:none;stroke-width:1;marker:none;visibility:visible;display:inline;overflow:visible;enable-background:accumulate"
         sodipodi:type="arc" />
      <path
         style="fill:#e6e6e6;fill-opacity:0.89411765;stroke:none"
         d="m -5,1048.3622 2,0 0,-2 -4,-4 z"
         id="path3757"
         inkscape:connector-curvature="0"
         sodipodi:nodetypes="ccccc" />
      <rect
         style="color:#000000;fill:#dadbdc;fill-opacity:0.96470588;fill-rule:nonzero;stroke:none;stroke-width:1;marker:none;visibility:visible;display:inline;overflow:visible;enable-background:accumulate"
         id="rect3763"
         width="2"
         height="2"
         x="-13"
         y="1047.3622" />
    </g>
  </g>
</svg>

<?xml version="1.0" encoding="UTF-8"?>
<!-- Created with Inkscape (http://www.inkscape.org/) -->
<svg version="1.1" viewBox="0 0 16 16" xmlns="http://www.w3.org/2000/svg" xmlns:cc="http://creativecommons.org/ns#" xmlns:dc="http://purl.org/dc/elements/1.1/" xmlns:rdf="http://www.w3.org/1999/02/22-rdf-syntax-ns#">
<metadata>
<rdf:RDF>
<cc:Work rdf:about="">
<dc:format>image/svg+xml</dc:format>
<dc:type rdf:resource="http://purl.org/dc/dcmitype/StillImage"/>
<dc:title/>
</cc:Work>
</rdf:RDF>
</metadata>
<g transform="translate(-1 -1035.4)">
<path transform="translate(1 1035.4)" d="m1 0v16h14v-16zm6.9062 2c0.33218-0.00603 0.66063 0.030704 1 0.09375 2.715 0.50437 4.5044 3.0975 4 5.8125-0.02378 0.12803-0.0288 0.24922-0.0625 0.375l-2.9062-0.78125c0.041104-0.15976 0.0625-0.32741 0.0625-0.5 0-1.1046-0.89543-2-2-2s-2 0.89543-2 2c0 0.97706 0.69875 1.794 1.625 1.9688l-0.53125 2.9375c-2.715-0.50437-4.5044-3.0975-4-5.8125 0.44132-2.3756 2.4873-4.0515 4.8125-4.0938zm0.09375 5 4 4v2h-2zm-6 5h2v2h-2z" color="#000000" fill="#999" fill-opacity=".91237"/>
<rect x="-14" y="1036.4" width="14" height="14" color="#000000" fill="#999" fill-opacity=".91237"/>
<path transform="translate(-15 1036.4)" d="m7.0868 10.916a5 5 0 1 1 5.7429-3.6218l-4.8296-1.2941z" color="#000000" fill="#fff" fill-opacity=".91237"/>
<path transform="translate(-15 1036.4)" d="m10 6a2 2 0 1 1-4 0 2 2 0 1 1 4 0z" color="#000000" fill="#999" fill-opacity=".91237"/>
<path d="m-5 1048.4h2v-2l-4-4z" fill="#e6e6e6" fill-opacity=".89412"/>
<rect x="-13" y="1047.4" width="2" height="2" color="#000000" fill="#dadbdc" fill-opacity=".96471"/>
</g>
</svg>
